src/components/Icon/assets/call-missed.svg

<svg width="24" height="24" viewBox="0 0 24 24" fill="none" xmlns="http://www.w3.org/2000/svg">
<path fill-rule="evenodd" clip-rule="evenodd" d="M10 2V4H6.45034L11.9998 9.54946L18.2563 3.29299L19.6705 4.70721L13.0377 11.34C16.524 11.5363 19.9664 12.7226 22.9209 14.8989L23.3249 15.1959C23.5159 15.3369 23.5569 15.6059 23.4159 15.7979L22.0039 17.7149L21.8469 17.9269C21.2919 18.6809 20.2659 18.9079 19.4439 18.4609L17.1469 17.2099C16.5449 16.8819 16.1709 16.2509 16.1709 15.5659V13.7199C13.4349 12.9999 10.5659 12.9999 7.8299 13.7189V15.5659C7.8299 16.2509 7.4549 16.8819 6.8529 17.2099L4.5559 18.4609C3.7339 18.9089 2.7079 18.6809 2.1529 17.9269L0.583904 15.7979C0.442904 15.6069 0.483904 15.3369 0.674904 15.1959L1.0759 14.9009C4.03099 12.7234 7.47441 11.5364 10.9619 11.34L5 5.37809V9H3V4C3 2.89543 3.89544 2 5 2H10Z" fill="#65676A"/>
</svg>

<svg xmlns="http://www.w3.org/2000/svg" width="24" height="24" viewBox="0 0 24 24">
    <path fill="#65676A" fill-rule="evenodd" d="M10 2v2H6.451L12 9.55l6.256-6.257 1.414 1.414-6.633 6.633c3.486.196 6.929 1.382 9.884 3.559l.404.297c.19.14.232.41.09.602l-1.411 1.917-.157.212c-.555.754-1.581.98-2.403.534l-2.297-1.251c-.602-.328-.976-.96-.976-1.644V13.72c-2.736-.72-5.605-.72-8.341-.001v1.847c0 .685-.375 1.316-.977 1.644l-2.297 1.25c-.822.449-1.848.22-2.403-.533l-1.57-2.13c-.14-.19-.1-.46.092-.601l.4-.295c2.956-2.178 6.4-3.365 9.887-3.561L5 5.378V9H3V4l.005-.15C3.082 2.817 3.945 2 5 2h5z"/>
</svg>
